symbols/web/contacts/materialsymbolsrounded/contacts_wght600gradN25fill1_48px.svg

<svg xmlns="http://www.w3.org/2000/svg" height="48" width="48"><path d="M8.15 46.25q-.6 0-1.025-.4-.425-.4-.425-1.05 0-.6.425-1.025.425-.425 1.025-.425h31.7q.6 0 1.025.425.425.425.425 1.025 0 .65-.425 1.05t-1.025.4Zm0-41.65q-.6 0-1.025-.4-.425-.4-.425-1 0-.65.425-1.05t1.025-.4h31.7q.6 0 1.025.4.425.4.425 1.05 0 .6-.425 1t-1.025.4ZM24 26.45q2.5 0 4.25-1.7T30 20.5q0-2.6-1.725-4.325T24 14.45q-2.55 0-4.275 1.725Q18 17.9 18 20.45q0 2.55 1.725 4.275Q21.45 26.45 24 26.45Zm-16.95 14q-1.6 0-2.725-1.15T3.2 36.6V11.4q0-1.65 1.125-2.75t2.725-1.1h33.9q1.6 0 2.725 1.15t1.125 2.7v25.2q0 1.55-1.125 2.7-1.125 1.15-2.725 1.15Zm3.85-3.55h26.2q-2.3-3.15-5.925-4.8T24 30.45q-3.6 0-7.15 1.65-3.55 1.65-5.95 4.8Z"/></svg>

<svg xmlns="http://www.w3.org/2000/svg" height="48" width="48"><path d="M8.15 46.25Q7.55 46.25 7.125 45.85Q6.7 45.45 6.7 44.8Q6.7 44.2 7.125 43.775Q7.55 43.35 8.15 43.35H39.85Q40.45 43.35 40.875 43.775Q41.3 44.2 41.3 44.8Q41.3 45.45 40.875 45.85Q40.45 46.25 39.85 46.25ZM8.15 4.6Q7.55 4.6 7.125 4.2Q6.7 3.8 6.7 3.2Q6.7 2.55 7.125 2.15Q7.55 1.75 8.15 1.75H39.85Q40.45 1.75 40.875 2.15Q41.3 2.55 41.3 3.2Q41.3 3.8 40.875 4.2Q40.45 4.6 39.85 4.6ZM24 26.45Q26.5 26.45 28.25 24.75Q30 23.05 30 20.5Q30 17.9 28.275 16.175Q26.55 14.45 24 14.45Q21.45 14.45 19.725 16.175Q18 17.9 18 20.45Q18 23 19.725 24.725Q21.45 26.45 24 26.45ZM7.05 40.45Q5.45 40.45 4.325 39.3Q3.2 38.15 3.2 36.6V11.4Q3.2 9.75 4.325 8.65Q5.45 7.55 7.05 7.55H40.95Q42.55 7.55 43.675 8.7Q44.8 9.85 44.8 11.4V36.6Q44.8 38.15 43.675 39.3Q42.55 40.45 40.95 40.45ZM10.9 36.9H37.1Q34.8 33.75 31.175 32.1Q27.55 30.45 24 30.45Q20.4 30.45 16.85 32.1Q13.3 33.75 10.9 36.9Z"/></svg>
